X:1
T:Lamborne, 87.87.77
T:George Clement Martin, 1875
T:Lamborne, 87.87.77
T:Public Domain
C:George Clement Martin, 1875
Z:Public Domain
%%score ( 1 2 ) ( 3 4 )
L:1/8
M:none
K:D
V:1 treble 
V:2 treble 
V:3 bass 
V:4 bass 
V:1
 [Dd]2 [DB]2 [CA]2 D2 | [FA]2 [EG]2 [DF]2 [CE]2 | [DF]2 [E^G]2 [EA]2 [Ee]2 | F2 z d (d2 c2) x | %4
 [Dd]2 [DB]2 ^D2 z A x | [FA]2 [^DB]2 [EA]2 [EG]2 | [CF]2 [EF]2 [DF]2 D2 | [DE]2 [CE]2 D4 | %8
 [DF]2 [FA]2 [Gd]2 [Fd]2 | [Dd]2 [EB]2 (A2 G2) | [FA]2 [EG]2 [CE]2 D2 | [DE]2 [CE]2 D4 |] %12
V:2
 x6 D2 | x8 | x8 | e3 (E2 E4) | x4 A3 E2 | x8 | x6 D2 | x4 D4 | x8 | x4 A4 | x6 D2 | x4 D4 |] %12
V:3
 [D,F,]2 G,2 [G,A,]2 [F,A,]2 | [E,B,]2 [E,B,]2 A,2 [A,,A,]2 | [D,A,]2 [D,B,]2 [C,A,]2 [C,A,]2 | %3
 [B,,A,]2 [E,^G,]2 (A,3 =G,) x | [F,A,]2 [G,B,]2 [F,=C]2 [E,C]2 x | %5
 [^D,B,]2 [B,,B,]2 [E,B,]2 [E,B,]2 | [F,^A,]2 [^A,,C]2 [B,,B,]2 [B,,F,]2 | %7
 [G,,B,]2 [A,,A,]2 [D,F,]4 | [D,A,]2 [CD]2 [B,D]2 [A,=C]2 | [G,B,]2 [G,C]2 ([F,D]2 [E,C]2) | %10
 [D,D]2 [G,,B,]2 [A,,G,]2 [B,,F,]2 | [G,,B,]2 [A,,G,]2 [D,F,]4 |] %12
V:4
 x2 G,2 x4 | x4 A,2 x2 | x8 | x4 A,4 x | x9 | x8 | x8 | x8 | x8 | x8 | x8 | x8 |] %12

